X: 131881
T: Maids of Tramore
S: "The Roche Collection of Traditional Irish Music" [I/52/129]
L: 1/8
M: 6/8
R: jig
K: G
eAA BAA | eAA ABd | eAA B2A | BGG GBd |
eAA BAA | eAA ABd | efe dBA | BGG GBd :|
gfg efg | fag fed | gfg efg | e2d efg |
gfg efg | fag fed | efe dBA | BGG GBd :|
